X: 8 
T:Ravelled Hank of Yarn 
M:4/4 
R:Reel 
S:James Morrison 
C:Traditional 
Q:180 
K:G 
||A|B2
Bc (3BAA AB|(3AGG GE GABc |(3edd de (3edd de |1 fdeB dAF :|2 fdAF G3|: A| (3edd dB (3edd dA
|(3Bcd eg bgaf |(3edd dB (3edd eg |(3fed dB A GG:|
